static/icons/copy.svg

<svg xmlns="http://www.w3.org/2000/svg" viewBox="0 0 24 24" width="24" height="24"><path d="M6.9998 6V3C6.9998 2.44772 7.44752 2 7.9998 2H19.9998C20.5521 2 20.9998 2.44772 20.9998 3V17C20.9998 17.5523 20.5521 18 19.9998 18H16.9998V20.9991C16.9998 21.5519 16.5499 22 15.993 22H4.00666C3.45059 22 3 21.5554 3 20.9991L3.0026 7.00087C3.0027 6.44811 3.45264 6 4.00942 6H6.9998ZM5.00242 8L5.00019 20H14.9998V8H5.00242ZM8.9998 6H16.9998V16H18.9998V4H8.9998V6Z" fill="currentColor"></path></svg>

<svg xmlns="http://www.w3.org/2000/svg" width="24" height="24"><path fill="currentColor" d="M7 6V3a1 1 0 0 1 1-1h12a1 1 0 0 1 1 1v14a1 1 0 0 1-1 1h-3v3c0 .552-.45 1-1.007 1H4.007A1.001 1.001 0 0 1 3 21l.003-14c0-.552.45-1 1.006-1zM5.002 8 5 20h10V8zM9 6h8v10h2V4H9z"/></svg>
